X: 4185
T: Blue Ribbon, The
R: polka
M: 2/4
K: Amajor
A/B/|:cc dc/d/|ea dc/d/|ea a/f/e/d/|cA B2|
cB/c/ dc/d/|ea dc/d/|ea a/f/e/d/|1 cA A>B:|2 cA A2||
|:aa fe/f/|ae dc/d/|ea a/f/e/d/|cA B2|
({e/f/g/}a)a fe/f/|ae dc/d/|ea a/f/e/d/|1 cA A2|2 cA A-||

